X: 6
T:Upton Stick Dance (Chingford version)
M:6/8
L:1/8
R:Jig
K:G
B c
P:A
     |: kd2 B BAG  | AGA BGE | D2 G GBd  | edB A2 B/c/ |!
   d2 B BAG  | AGA BGE | D2 G GAB  | AGA G3 :|!
P:B
     |:  GBd  g2 d | ede dBG | GBd  g2 d | edB A3  |!
 GBd  g2 d | ede dBG | ege  dBG  | ABA G3 :|
